X: 40584
T: Tommy's Tarbukas
R: reel
M: 4/4
K: Bminor
|:f2 ef dBBd|cAeA fAeA|f2 ef dBBd|cAec dBde|
f2 ef dBBd|cAeA fAeA|f2 df cAAc|1 Bffe dBde:|2 Bffe dBBA||
|:FBdB GBed|ceag f3d|FBdB GBed|cAec dBBA|
FBdB GBed|ceag f3d|afdg ecAG|1 FB^Ac dBB=A:|2 FB^Ac dBde||

